X:17771
T:Trip to Herv\'e's
C:Michael McGoldrick
R:reel
Z:id:hn-reel-671
M:C|
K:D
FAAF ABde|faaf dafd|B2dB AFDE|FEED E2DE|
FAAF ABde|f2af dafd|~B3d AFEG|1 ~F3E DBAG:|2 ~F3E DEFG||
AB~B2 d2BA|EFFE FGFE|DEFG A2DE|FGA2 FGAF|
AB~B2 d2BA|EFFE FGFE|DEFG ABAG|FGEG FDEF|
GABc d2BA|EFFE FGFE|DEFG A2DE|FGA2 FGA2|
B2FA2EF2|DEED EFGA|B2FA2EF2|DEED EFGA||
